X:205
T:Cock and the Hen, The
M:9/8
L:1/8
R:Slip Jig (Key of F#m)
K:F#min
"F#m"~F3 FEF ~c3 | ~F3 FEF "A"AFE | "F#m"~F3 FEF c2d |1 "A"ecA ABc "E"BAE :|2 "A"ecA ABc "D"BAF |:
"A"ecA ABc "D"d2f | "A"ecA ABc "E"BAF | "A"ecA ABc "D"d2B | "A"cBA BAF "E"AFE :|]
